app/assets/images/heroicons/solid/arrow-turn-left-up.svg

<svg width="24" height="24" viewBox="0 0 24 24" fill="none" xmlns="http://www.w3.org/2000/svg">
<path fill-rule="evenodd" clip-rule="evenodd" d="M20.2397 20.249C20.2397 19.8348 19.9039 19.499 19.4897 19.499L8.98877 19.499L8.98877 5.56007L11.4588 8.02975C11.7517 8.32263 12.2266 8.32261 12.5195 8.0297C12.8124 7.73678 12.8123 7.2619 12.5194 6.96902L8.76907 3.21915C8.47616 2.92628 8.00131 2.92628 7.70841 3.21915L3.95805 6.96902C3.66512 7.2619 3.6651 7.73678 3.95799 8.0297C4.25089 8.32261 4.72578 8.32263 5.0187 8.02975L7.4887 5.56007L7.4887 20.249C7.4887 20.6632 7.8245 20.999 8.23873 20.999L19.4897 20.999C19.9039 20.999 20.2397 20.6632 20.2397 20.249Z" fill="black"/>
</svg>

<svg xmlns="http://www.w3.org/2000/svg" viewBox="0 0 24 24" fill="currentColor" aria-hidden="true" data-slot="icon">
  <path fill-rule="evenodd" d="M20.24 20.249a.75.75 0 0 0-.75-.75H8.989V5.56l2.47 2.47a.75.75 0 0 0 1.06-1.061l-3.75-3.75a.75.75 0 0 0-1.06 0l-3.75 3.75a.75.75 0 1 0 1.06 1.06l2.47-2.469V20.25c0 .414.335.75.75.75h11.25a.75.75 0 0 0 .75-.75Z" clip-rule="evenodd"/>
</svg>
